svg/email_send.svg

<svg xmlns="http://www.w3.org/2000/svg" viewBox="0 0 24 24"><path d="M13 17h4v-3l5 4.5-5 4.5v-3h-4zm7-13H4a2 2 0 0 0-2 2v12a2 2 0 0 0 2 2h7.35a5.8 5.8 0 0 1-.35-2 6 6 0 0 1 11-3.31V6a2 2 0 0 0-2-2m0 4-8 5-8-5V6l8 5 8-5Z"/></svg>

<?xml version="1.0" encoding="UTF-8"?><!DOCTYPE svg PUBLIC "-//W3C//DTD SVG 1.1//EN" "http://www.w3.org/Graphics/SVG/1.1/DTD/svg11.dtd"><svg xmlns="http://www.w3.org/2000/svg" xmlns:xlink="http://www.w3.org/1999/xlink" version="1.1" id="mdi-email-send" width="24" height="24" viewBox="0 0 24 24"><path d="M13 17H17V14L22 18.5L17 23V20H13V17M20 4H4A2 2 0 0 0 2 6V18A2 2 0 0 0 4 20H11.35A5.8 5.8 0 0 1 11 18A6 6 0 0 1 22 14.69V6A2 2 0 0 0 20 4M20 8L12 13L4 8V6L12 11L20 6Z" /></svg>
